X: 20755
T: SWEET ELLEN
C:
%R: reel
B: Elias Howe "The Musician's Companion" 1843 p.74 #2
S: http://imslp.org/wiki/The_Musician's_Companion_(Howe,_Elias)
Z: 2015 John Chambers <jc:trillian.mit.edu>
M: C
L: 1/8
K: D
% - - - - - - - - - - - - - - - - - - - - - - - - -
|:\
D2(FA) fedB | AFFD E2E2 | D2(FA) fedB | AFEF D2D2 ::\
{g}fedB ABde | fafd e2ef | {g}fedB ABde | faeg f2d2 :|
|:\
DAFA DAFA | DAFA B2E2 | DAFA DAFA | BABc d2d2 ::\
{g}f2{e}df e2cA | d2Bd c2AA | {c}BAFA BcdB | AGFE D2D2 :|
% - - - - - - - - - - - - - - - - - - - - - - - - -

%%sep 1 1 500

